src/img/map.svg

<svg width="100" height="78" viewBox="0 0 100 78" fill="none" xmlns="http://www.w3.org/2000/svg">
<path d="M96.6996 45.4633L98.8896 47.6457C99.6057 48.3592 100 49.308 100 50.3176C100 51.3267 99.6055 52.2755 98.8895 52.9893C98.0185 53.8569 96.775 54.2497 95.5613 54.0405L91.2389 53.2942C89.0226 52.9116 87.4142 51.0071 87.4142 48.766C87.4142 48.3181 87.2394 47.8971 86.9217 47.5807L83.8332 44.5028C83.5974 44.2679 83.2842 44.1386 82.951 44.1386C82.6177 44.1386 82.3045 44.2679 82.0689 44.5028C81.7463 44.8243 81.6255 45.2953 81.7541 45.7317L82.165 47.1264C82.5959 48.5881 82.1916 50.1652 81.1107 51.2422L79.9287 52.4202C79.365 52.9819 79.0545 53.7286 79.0545 54.5229C79.0545 55.7495 80.0558 56.7472 81.2867 56.7472H82.3881C84.4408 56.7472 86.391 57.6321 87.7383 59.1754L89.9228 61.6777C91.033 62.9492 91.6445 64.5779 91.6445 66.2636V70.004C91.6445 72.5554 89.5615 74.6313 87.0012 74.6313C84.4408 74.6313 82.3578 72.5554 82.3578 70.004V67.5832C82.3578 67.1498 82.0041 66.7971 81.5689 66.7971C81.3582 66.7971 81.1603 66.8788 81.0113 67.0273L78.7369 69.2934C78.0361 69.9917 77.1043 70.3763 76.113 70.3763H75.5736C74.5822 70.3763 73.6505 69.9917 72.9496 69.2934L69.6644 66.0197C69.5169 65.8728 69.3208 65.7918 69.1123 65.7918C68.6818 65.7918 68.3314 66.141 68.3314 66.5702V69.8162C68.3314 72.1333 66.4396 74.0185 64.1142 74.0185H62.4939C61.305 74.0185 60.1874 73.557 59.3466 72.7193L59.0855 72.4593C58.5659 71.9416 57.7208 71.9417 57.2019 72.4591L54.7392 74.9132C53.9261 75.7234 52.8452 76.1695 51.6954 76.1695C50.5456 76.1695 49.4647 75.7234 48.6517 74.9132C48.3919 74.6543 48.0468 74.5118 47.6796 74.5118C47.3124 74.5118 46.9671 74.6543 46.7075 74.9132L44.8706 76.7437C44.0573 77.5539 42.9765 78 41.8268 78C39.2903 78 37.2268 75.9435 37.2268 73.4161V72.6786C37.2192 71.199 35.803 70.1844 34.6342 70.2716C32.7598 70.2716 31.2348 68.752 31.2348 66.8841C31.2348 66.626 31.0241 66.416 30.7651 66.416H29.1077C28.3811 66.416 27.7901 67.005 27.7901 67.729C27.7901 69.5968 26.2651 71.1165 24.3907 71.1165H22.7307C21.1221 71.1165 19.61 70.4923 18.4727 69.359L15.8993 66.7946C15.5721 66.4686 15.1369 66.2889 14.6742 66.2889H13.6541C13.4348 66.2889 13.2563 66.4668 13.2563 66.6854C13.2563 67.8929 12.7842 69.0283 11.9274 69.8824L9.70021 72.1017C8.16798 73.629 5.67443 73.6292 4.14161 72.1017L1.55078 69.52C0.550782 68.5235 0 67.1984 0 65.7891V63.9399C0 62.0843 1.51504 60.5746 3.37716 60.5746C3.62384 60.5746 3.82462 60.3745 3.82462 60.1287V56.5794C3.82462 56.063 3.62286 55.5774 3.25645 55.2123L1.95547 53.9159C0.113867 52.0809 -0.108203 49.2276 1.42696 47.1315L5.87247 41.0611C7.03712 39.471 8.91174 38.5216 10.8873 38.5216C12.2791 38.6586 13.9047 37.9418 14.4942 37.2563C11.501 31.9468 9.9883 26.7996 9.9883 21.8854C9.94416 10.2874 18.4182 -0.0126237 30.8917 2.6751e-05C42.6852 -0.0184631 51.8261 9.55014 51.7948 21.8858C51.7948 25.3524 51.0409 28.9372 49.5444 32.6146C51.6567 32.5198 53.4275 34.3236 53.415 36.2818V36.8077C53.415 37.1925 53.7292 37.5056 54.1155 37.5056H59.4675C59.6546 37.5056 59.8304 37.433 59.9626 37.3013L64.8683 32.4128C65.9298 31.3549 67.341 30.7724 68.8423 30.7724C69.5609 30.7724 70.2365 30.4935 70.7445 29.9873L75.2656 25.4818C76.4873 24.2648 78.1109 23.5945 79.838 23.5945C80.7828 23.5945 81.6709 23.2278 82.339 22.5621L85.0933 19.8175C85.7939 19.1193 86.7252 18.7349 87.7158 18.7349C89.7605 18.7349 91.4242 20.3928 91.4242 22.4306V23.8237C91.4242 24.6778 91.758 25.4808 92.3641 26.0845C93.5234 27.2399 94.1619 28.7761 94.1619 30.41V31.3656C94.1619 32.9996 93.5236 34.5356 92.3642 35.6909L91.6064 36.4461C91.0004 37.05 90.6666 37.8531 90.6666 38.7071C90.6666 39.1872 90.8543 39.6386 91.1951 39.9782L91.8625 40.6433C92.4346 41.2132 92.4346 42.1374 91.8625 42.7075C91.5764 42.9927 91.2014 43.1351 90.8265 43.1351C90.4517 43.1351 90.0767 42.9925 89.7906 42.7075L89.1232 42.0425C88.2291 41.1516 87.7367 39.9669 87.7367 38.7071C87.7367 37.0734 88.3752 35.5371 89.5345 34.3818L90.2924 33.6267C90.8984 33.0227 91.2322 32.2199 91.2322 31.3656V30.41C91.2322 29.5558 90.8984 28.7529 90.2924 28.149C89.1332 26.9941 88.4945 25.4578 88.4945 23.8237V22.4306C88.4945 22.0026 88.1451 21.6544 87.7158 21.6544C87.5078 21.6544 87.3123 21.7352 87.1652 21.8817L84.4107 24.6266C83.1892 25.8438 81.5654 26.5139 79.8382 26.5139C78.8937 26.5139 78.0054 26.8806 77.3373 27.5462L72.8164 32.0515C71.7548 33.1093 70.3437 33.6919 68.8423 33.6919C68.1238 33.6919 67.4482 33.9706 66.9402 34.477L62.0345 39.3655C61.3488 40.0489 60.4372 40.4251 59.4675 40.4251H54.1155C52.1138 40.4251 50.4853 38.8025 50.4853 36.8077V36.2818C50.4853 35.8696 50.1487 35.534 49.7349 35.534H48.2095C46.8085 38.2999 45.0005 41.1129 42.7872 43.9629C37.537 50.7241 32.1005 54.9457 32.0462 54.9875C31.7065 55.2497 31.2993 55.3807 30.8919 55.3807C30.4842 55.3807 30.0766 55.2495 29.7364 54.9869C28.7989 54.2645 26.5112 52.315 23.8875 49.5945C23.327 49.0133 23.3456 48.0892 23.9288 47.5307C24.512 46.9721 25.4391 46.9905 25.9999 47.5717C28.1967 49.8497 29.9805 51.4044 30.886 52.1576C34.1458 49.4079 48.8651 36.1866 48.8651 21.8858C48.8651 11.0733 41.1382 2.91948 30.8917 2.91948C20.645 2.91948 12.918 11.0731 12.918 21.8858C12.918 29.8633 17.6403 37.5237 21.6018 42.5452C22.1018 43.1789 21.9914 44.0966 21.3555 44.5949C21.0872 44.8051 20.768 44.907 20.4512 44.907C20.0172 44.907 19.5875 44.7157 19.2987 44.3494C18.0959 42.8249 17.0102 41.3109 16.0389 39.8085C14.6373 41.0133 12.5342 41.5625 10.8873 41.4413C9.84396 41.4413 8.85392 41.9426 8.23888 42.7825L3.79337 48.8528C3.11466 49.7794 3.2129 51.0406 4.02696 51.8518L5.32794 53.1483C6.24786 54.0648 6.75431 55.2834 6.75431 56.5796V60.1289C6.75431 61.9845 5.23927 63.4942 3.37716 63.4942C3.13048 63.4942 2.92969 63.6943 2.92969 63.9401V65.7893C2.92969 66.4189 3.17579 67.0106 3.62227 67.4557L6.2131 70.0375C6.60333 70.4264 7.2383 70.4266 7.62873 70.0375L9.85568 67.8181C10.1594 67.5157 10.3266 67.1132 10.3266 66.6854C10.3266 64.857 11.8192 63.3695 13.6541 63.3695H14.6742C15.9194 63.3695 17.0901 63.8527 17.9707 64.7301L20.5446 67.2946C21.1286 67.8767 21.9049 68.1971 22.7309 68.1971H24.3909C24.6499 68.1971 24.8606 67.9871 24.8606 67.729C24.8606 65.3952 26.7659 63.4966 29.1079 63.4966H30.7653C32.6397 63.4966 34.1647 65.0162 34.1647 66.8841C34.1647 67.1422 34.3755 67.3522 34.6344 67.3522C37.6454 67.2617 40.1731 69.7763 40.1567 72.6786V73.4161C40.1567 74.3339 40.9061 75.0806 41.827 75.0806C42.1942 75.0806 42.5395 74.9381 42.7993 74.6792L44.636 72.8489C45.4489 72.0387 46.53 71.5924 47.6798 71.5924C48.8296 71.5924 49.9105 72.0387 50.7235 72.8489C50.9833 73.1078 51.3284 73.2502 51.6958 73.2502C52.063 73.2502 52.4083 73.1076 52.6679 72.8489L55.1306 70.3948C56.7921 68.7389 59.4956 68.7389 61.1573 70.3948L61.4185 70.6549C61.706 70.9414 62.088 71.099 62.4943 71.099H64.1146C64.8245 71.099 65.4021 70.5235 65.4021 69.8162V66.5702C65.4021 64.5312 67.0665 62.8724 69.1126 62.8724C70.1038 62.8724 71.0357 63.257 71.7367 63.9555L75.0216 67.2292C75.1693 67.3761 75.3654 67.4571 75.574 67.4571H76.1134C76.322 67.4571 76.5181 67.3761 76.6656 67.2292L78.94 64.9631C79.6423 64.263 80.5761 63.8776 81.5693 63.8776C83.6197 63.8776 85.2879 65.54 85.2879 67.5832V70.0042C85.2879 70.9458 86.0568 71.7121 87.0015 71.7121C87.9463 71.7121 88.7152 70.9458 88.7152 70.0042V66.2636C88.7152 65.2823 88.3594 64.334 87.7129 63.5939L85.5283 61.0915C84.7375 60.1861 83.5931 59.6666 82.3884 59.6666H81.2871C78.4406 59.6666 76.1252 57.3593 76.1252 54.5229C76.1252 52.949 76.7402 51.469 77.8572 50.3559L79.0394 49.1778C79.3623 48.8563 79.4828 48.3853 79.3543 47.9489L78.9433 46.5542C78.5127 45.0927 78.9168 43.5156 79.9974 42.4385C80.7863 41.6522 81.8353 41.2192 82.9511 41.2192C84.067 41.2192 85.116 41.652 85.9049 42.4383L88.9933 45.5162C89.8644 46.3841 90.3441 47.5382 90.3441 48.7658C90.3441 49.583 90.9308 50.2777 91.7392 50.4172L96.0617 51.1634C96.3367 51.2109 96.6201 51.1218 96.818 50.9244C96.9809 50.7623 97.0705 50.5464 97.0705 50.3172C97.0705 50.0877 96.9809 49.8721 96.8182 49.7099L94.6279 47.5275C94.0558 46.9577 94.0558 46.0334 94.6279 45.4633C95.2 44.8932 96.1273 44.8932 96.6996 45.4633Z" fill="#616F8A"/>
<path fill-rule="evenodd" clip-rule="evenodd" d="M45.3151 20.7424C45.3151 12.8168 38.8446 6.36892 30.8912 6.36892C22.9379 6.36892 16.4674 12.8168 16.4674 20.7424C16.4674 28.6679 22.9379 35.1158 30.8912 35.1158C38.8446 35.1158 45.3151 28.6677 45.3151 20.7424ZM30.8912 9.28838C35.1238 9.28838 38.8268 11.5817 40.8217 14.9854H20.9607C22.9557 11.5817 26.6586 9.28838 30.8912 9.28838ZM20.9734 26.5211H40.8088C38.811 29.9128 35.1147 32.1961 30.891 32.1961C26.6674 32.1961 22.9713 29.9128 20.9734 26.5211ZM33 17.9048H39H42.028C42.261 18.8126 42.3854 19.7632 42.3854 20.7424C42.3854 21.7293 42.2594 22.6875 42.0227 23.6019H19.7597C19.523 22.6875 19.3971 21.7293 19.3971 20.7424C19.3971 19.7632 19.5215 18.8126 19.7545 17.9048H33Z" fill="#616F8A"/>
</svg>

<svg width="100" height="78" fill="none" xmlns="http://www.w3.org/2000/svg"><path d="M96.7 45.463l2.19 2.183a3.747 3.747 0 0 1 1.11 2.672c0 1.009-.394 1.958-1.11 2.671a3.805 3.805 0 0 1-3.329 1.052l-4.322-.747a4.591 4.591 0 0 1-3.825-4.528c0-.448-.175-.869-.492-1.185l-3.089-3.078a1.242 1.242 0 0 0-.882-.364c-.333 0-.646.129-.882.364a1.24 1.24 0 0 0-.315 1.229l.411 1.394a4.15 4.15 0 0 1-1.054 4.116l-1.182 1.178a2.949 2.949 0 0 0-.874 2.103 2.23 2.23 0 0 0 2.232 2.224h1.101a7.1 7.1 0 0 1 5.35 2.428l2.185 2.503a6.972 6.972 0 0 1 1.721 4.586v3.74c0 2.551-2.083 4.627-4.643 4.627-2.56 0-4.643-2.076-4.643-4.627v-2.42a.788.788 0 0 0-1.347-.557l-2.274 2.266a3.693 3.693 0 0 1-2.624 1.083h-.54a3.693 3.693 0 0 1-2.623-1.083l-3.286-3.273a.78.78 0 0 0-1.333.55v3.246c0 2.317-1.891 4.203-4.217 4.203h-1.62a4.43 4.43 0 0 1-3.147-1.3l-.261-.26a1.337 1.337 0 0 0-1.884 0l-2.463 2.454a4.284 4.284 0 0 1-3.044 1.257c-1.15 0-2.23-.447-3.043-1.257a1.368 1.368 0 0 0-.972-.401c-.368 0-.713.142-.972.401l-1.837 1.83A4.285 4.285 0 0 1 41.827 78c-2.537 0-4.6-2.056-4.6-4.584v-.737c-.008-1.48-1.424-2.495-2.593-2.407-1.874 0-3.4-1.52-3.4-3.388a.47.47 0 0 0-.469-.468h-1.657c-.727 0-1.318.589-1.318 1.313a3.397 3.397 0 0 1-3.4 3.388h-1.66a5.993 5.993 0 0 1-4.257-1.758l-2.574-2.564a1.725 1.725 0 0 0-1.225-.506h-1.02a.398.398 0 0 0-.398.396 4.485 4.485 0 0 1-1.329 3.197L9.7 72.102a3.944 3.944 0 0 1-5.558 0L1.55 69.52A5.233 5.233 0 0 1 0 65.79v-1.85a3.375 3.375 0 0 1 3.377-3.365c.247 0 .448-.2.448-.446v-3.55c0-.516-.202-1.002-.569-1.367l-1.3-1.296a5.193 5.193 0 0 1-.529-6.784l4.445-6.07a6.235 6.235 0 0 1 5.015-2.54c1.392.137 3.018-.58 3.607-1.266-2.993-5.31-4.506-10.456-4.506-15.37C9.944 10.286 18.418-.014 30.892 0c11.793-.018 20.934 9.55 20.903 21.886 0 3.466-.754 7.051-2.25 10.729 2.112-.095 3.883 1.709 3.87 3.667v.526a.7.7 0 0 0 .7.698h5.352a.697.697 0 0 0 .496-.205l4.905-4.888a5.593 5.593 0 0 1 3.974-1.64c.719 0 1.395-.28 1.903-.786l4.52-4.505a6.437 6.437 0 0 1 4.573-1.887 3.52 3.52 0 0 0 2.501-1.033l2.754-2.745a3.69 3.69 0 0 1 2.623-1.082 3.706 3.706 0 0 1 3.708 3.696v1.393c0 .854.334 1.657.94 2.26a6.067 6.067 0 0 1 1.798 4.326v.956c0 1.634-.638 3.17-1.798 4.325l-.758.755a3.171 3.171 0 0 0-.94 2.261c0 .48.188.932.53 1.271l.666.665c.573.57.573 1.494 0 2.065a1.463 1.463 0 0 1-1.035.427c-.375 0-.75-.142-1.036-.427l-.668-.666a4.678 4.678 0 0 1-1.386-3.335c0-1.634.638-3.17 1.797-4.325l.758-.755c.606-.604.94-1.407.94-2.261v-.956c0-.854-.334-1.657-.94-2.261a6.066 6.066 0 0 1-1.797-4.325V22.43a.778.778 0 0 0-1.33-.55l-2.754 2.746a6.435 6.435 0 0 1-4.573 1.887 3.52 3.52 0 0 0-2.5 1.032l-4.522 4.505a5.593 5.593 0 0 1-3.974 1.64c-.718 0-1.394.28-1.902.786l-4.905 4.889a3.612 3.612 0 0 1-2.567 1.06h-5.353a3.628 3.628 0 0 1-3.63-3.618v-.526a.75.75 0 0 0-.75-.748h-1.526c-1.4 2.766-3.209 5.579-5.422 8.429-5.25 6.761-10.687 10.983-10.74 11.024a1.886 1.886 0 0 1-2.31 0c-.938-.723-3.226-2.672-5.85-5.393a1.456 1.456 0 0 1 .042-2.063 1.468 1.468 0 0 1 2.07.04c2.198 2.279 3.982 3.833 4.887 4.587 3.26-2.75 17.98-15.971 17.98-30.272 0-10.813-7.728-18.967-17.974-18.967-10.247 0-17.974 8.154-17.974 18.967 0 7.977 4.722 15.638 8.684 20.66a1.462 1.462 0 1 1-1.15 2.362c-.435-.001-.865-.192-1.153-.559a59.466 59.466 0 0 1-3.26-4.54c-1.402 1.204-3.505 1.754-5.152 1.632a3.293 3.293 0 0 0-2.648 1.341l-4.446 6.07a2.295 2.295 0 0 0 .234 3l1.3 1.296a4.812 4.812 0 0 1 1.427 3.432v3.549a3.375 3.375 0 0 1-3.377 3.365c-.247 0-.447.2-.447.446v1.85c0 .629.246 1.22.692 1.666l2.591 2.581c.39.39 1.025.39 1.416 0l2.227-2.219c.303-.302.47-.705.47-1.133a3.325 3.325 0 0 1 3.328-3.316h1.02a4.64 4.64 0 0 1 3.297 1.361l2.574 2.565c.584.582 1.36.902 2.186.902h1.66a.47.47 0 0 0 .47-.468c0-2.334 1.905-4.232 4.247-4.232h1.657c1.875 0 3.4 1.52 3.4 3.387 0 .258.21.468.47.468 3.01-.09 5.538 2.424 5.522 5.327v.737c0 .918.75 1.665 1.67 1.665.367 0 .712-.143.972-.402l1.837-1.83a4.284 4.284 0 0 1 3.044-1.257c1.15 0 2.23.447 3.044 1.257.26.259.604.401.972.401.367 0 .712-.142.972-.401l2.463-2.454a4.277 4.277 0 0 1 6.026 0l.262.26c.287.286.669.444 1.075.444h1.62c.71 0 1.288-.576 1.288-1.283V66.57a3.708 3.708 0 0 1 3.71-3.698c.992 0 1.924.385 2.625 1.084l3.285 3.273a.778.778 0 0 0 .552.228h.54a.778.778 0 0 0 .552-.228l2.274-2.266a3.7 3.7 0 0 1 2.63-1.085 3.716 3.716 0 0 1 3.718 3.705v2.421a1.713 1.713 0 0 0 3.427 0v-3.74c0-.982-.356-1.93-1.002-2.67l-2.185-2.502a4.168 4.168 0 0 0-3.14-1.425h-1.1c-2.847 0-5.163-2.308-5.163-5.144 0-1.574.615-3.054 1.732-4.167l1.182-1.178c.323-.322.444-.793.315-1.23l-.41-1.394a4.15 4.15 0 0 1 1.053-4.116 4.157 4.157 0 0 1 2.954-1.219c1.116 0 2.165.433 2.954 1.22l3.088 3.077a4.557 4.557 0 0 1 1.351 3.25c0 .817.587 1.512 1.395 1.651l4.323.746a.865.865 0 0 0 .756-.239.851.851 0 0 0 .252-.607c0-.23-.09-.445-.252-.607l-2.19-2.182a1.456 1.456 0 0 1 0-2.065c.572-.57 1.5-.57 2.072 0z" fill="#616F8A"/><path fill-rule="evenodd" clip-rule="evenodd" d="M45.315 20.742c0-7.925-6.47-14.373-14.424-14.373-7.953 0-14.424 6.448-14.424 14.373 0 7.926 6.47 14.374 14.424 14.374s14.424-6.448 14.424-14.374zM30.891 9.288c4.233 0 7.936 2.294 9.93 5.697h-19.86a11.506 11.506 0 0 1 9.93-5.697zm-9.918 17.233H40.81a11.505 11.505 0 0 1-9.918 5.675c-4.224 0-7.92-2.283-9.918-5.675zM33 17.905h9.028a11.4 11.4 0 0 1 .357 2.837c0 .987-.126 1.945-.362 2.86H19.76a11.397 11.397 0 0 1-.363-2.86c0-.979.125-1.93.358-2.837H33z" fill="#616F8A"/></svg>
